lib/preview/nrk-logo-preview-nrk-klassisk-with-bg.svg

<svg width="111" height="24" viewBox="0 0 111 24" fill="none" xmlns="http://www.w3.org/2000/svg">
<rect width="111" height="24" fill="#6B046A"/>
<path d="M6.00427 18V6.00109H9.94146V18H6.00427ZM15.2981 7.91078L17.5623 18H13.2534L10.5498 6.00109H12.9664C13.5206 5.9939 14.0583 6.18925 14.4788 6.55039C14.8999 6.89638 15.1892 7.3767 15.2981 7.91078ZM18.1538 18V6.00109H22.091V18H18.1538ZM25.0647 10.5641C24.6405 10.5682 24.223 10.4572 23.8568 10.243C23.4955 10.0341 23.1954 9.73396 22.9865 9.3726C22.7721 9.00633 22.661 8.58876 22.6652 8.16432C22.6604 7.74246 22.7715 7.32738 22.9865 6.96443C23.1976 6.60699 23.4974 6.31009 23.8568 6.10252C24.2231 5.8885 24.6405 5.77751 25.0647 5.78138C25.4865 5.77684 25.9014 5.88793 26.2645 6.10252C26.6203 6.31191 26.9169 6.60856 27.1263 6.96443C27.3411 7.32748 27.4522 7.74249 27.4476 8.16432C27.4515 8.58873 27.3405 9.00623 27.1263 9.3726C26.9191 9.73238 26.6222 10.0323 26.2645 10.243C25.9014 10.458 25.4862 10.5691 25.0642 10.5641H25.0647ZM28.0559 18V6.00109H31.9934V18H28.0559ZM36.978 12.5582C36.9891 12.5699 37.0735 12.7079 37.2314 12.9723C37.3893 13.2367 37.5949 13.5747 37.8482 13.9863C38.1017 14.3977 38.3692 14.8343 38.6506 15.296C38.932 15.7577 39.1969 16.1944 39.4451 16.6058C39.6924 17.0172 39.974 17.4819 40.29 18H35.9641C35.6936 17.5606 35.4484 17.1635 35.2287 16.8086C35.0091 16.4537 34.7756 16.0706 34.5281 15.6594C34.2801 15.2485 34.0349 14.8485 33.7925 14.4595C33.5501 14.0704 33.3418 13.7296 33.1675 13.4371C32.9925 13.1443 32.8713 12.9471 32.8039 12.8455C32.6368 12.5934 32.5379 12.3023 32.517 12.0005C32.5337 11.7109 32.6269 11.431 32.787 11.1891C32.8546 11.0764 32.9786 10.8764 33.1588 10.5891C33.339 10.3018 33.5503 9.96105 33.7925 9.56672C34.0347 9.17239 34.2799 8.7696 34.5281 8.35837C34.7763 7.94715 35.0098 7.56124 35.2287 7.20071C35.4488 6.84055 35.6939 6.44059 35.9641 6.00081H40.29L36.9439 11.4595C36.8404 11.6216 36.782 11.8083 36.7749 12.0005C36.786 12.2023 36.8565 12.3963 36.9774 12.5582H36.978Z" fill="white"/>
<path d="M53.9608 6.00995H51.8506L47.2643 11.294H46.6341V6.00995H44.8615V17.9962H46.6341V12.5771H46.6937L51.6821 18.0131L54.0962 17.9959L48.3732 12.0535L53.9608 6.00995Z" fill="#EFB4ED"/>
<path d="M58.1054 16.7551C58.0465 16.7615 57.9874 16.7644 57.9281 16.7638C57.801 16.7675 57.6746 16.7444 57.557 16.696C57.4547 16.6505 57.367 16.5774 57.3038 16.485C57.2305 16.3757 57.1815 16.2519 57.1603 16.122C57.1299 15.9493 57.1158 15.7742 57.1181 15.5989V5.25023L55.3961 5.50347V16.3586C55.3889 16.6431 55.4347 16.9265 55.5312 17.1943C55.6121 17.4119 55.7455 17.6061 55.9195 17.7598C56.0928 17.9084 56.2977 18.0152 56.5188 18.0721C56.7641 18.1357 57.0166 18.167 57.27 18.165C57.4053 18.165 57.5345 18.1594 57.6583 18.1478C57.7821 18.1363 57.9031 18.1197 58.0213 18.0975C58.1395 18.0752 58.238 18.0524 58.3167 18.0299L58.4855 16.696C58.418 16.7076 58.3505 16.7189 58.2829 16.7297C58.2154 16.7406 58.1562 16.7491 58.1054 16.7551Z" fill="#EFB4ED"/>
<path d="M67.5172 16.9326C67.3938 16.944 67.2695 16.9253 67.1548 16.8782C67.0402 16.8311 66.9386 16.757 66.8588 16.6622C66.7022 16.3919 66.6371 16.0782 66.6731 15.7678L66.7068 12.2901C66.7105 11.9254 66.6651 11.5619 66.5718 11.2093C66.4897 10.9004 66.3524 10.6088 66.1666 10.3486C65.9788 10.0942 65.7403 9.88146 65.466 9.72401C65.1475 9.5429 64.803 9.41194 64.4446 9.33572C64.0065 9.24106 63.5591 9.19573 63.1109 9.20063C62.7554 9.20048 62.4003 9.22303 62.0477 9.26816C61.7143 9.31006 61.3842 9.37486 61.0597 9.46205C60.759 9.54383 60.4631 9.64256 60.1735 9.75777L59.9709 11.1927C60.2522 11.0911 60.5196 11.0067 60.7728 10.9395C61.026 10.8723 61.2708 10.8161 61.5071 10.7707C61.7387 10.7263 61.9726 10.6953 62.2077 10.6778C62.4383 10.6609 62.6663 10.6525 62.8918 10.6525C63.2359 10.6451 63.5795 10.6849 63.9128 10.7707C64.1562 10.8316 64.3799 10.9536 64.5628 11.1252C64.7256 11.2921 64.842 11.4985 64.9004 11.7242C64.9725 12.0026 65.0067 12.2895 65.002 12.577L65.0001 13.0008L63.0266 13.1342C62.3516 13.153 61.6866 13.302 61.0682 13.5731C60.6054 13.7756 60.2059 14.0993 59.9118 14.51C59.6622 14.8755 59.5296 15.3083 59.5319 15.7509C59.5288 16.1661 59.6304 16.5753 59.8274 16.9408C60.0338 17.3165 60.3446 17.6244 60.7221 17.8274C61.1827 18.067 61.6974 18.1833 62.2162 18.165C62.7023 18.1763 63.1863 18.096 63.6427 17.9284C64.0374 17.7739 64.3986 17.5446 64.7063 17.2531C64.8231 17.141 64.9339 17.0229 65.0383 16.8992C65.0711 17.074 65.1329 17.2421 65.2212 17.3966C65.3717 17.655 65.6031 17.8568 65.8796 17.9706C66.1853 18.0933 66.5125 18.1535 66.8419 18.1476C66.9431 18.1476 67.0416 18.1451 67.1373 18.1391C67.2312 18.1337 67.3245 18.1197 67.4159 18.0972C67.5059 18.0744 67.5872 18.0547 67.6607 18.0381C67.7267 18.0231 67.7916 18.0034 67.8548 17.9791L68.0405 16.8477C67.9473 16.8798 67.8512 16.9025 67.7535 16.9155C67.6751 16.926 67.5962 16.9318 67.5172 16.9326ZM64.7063 16.1729C64.5233 16.3175 64.3251 16.4419 64.1154 16.5441C63.9065 16.6458 63.6851 16.7197 63.457 16.7638C63.2207 16.8093 62.9805 16.832 62.7398 16.8313C62.4646 16.8392 62.1909 16.7874 61.9376 16.6794C61.7317 16.5898 61.558 16.4395 61.4396 16.2486C61.3227 16.0463 61.2642 15.8154 61.2708 15.5818C61.2545 15.3004 61.3317 15.0216 61.4902 14.7886C61.674 14.574 61.9231 14.4258 62.1993 14.3666C62.6306 14.2649 63.0732 14.2195 63.5161 14.2315H64.9944L64.9868 15.9071C64.9011 16.0036 64.8073 16.0925 64.7063 16.1729Z" fill="#EFB4ED"/>
<path d="M74.9787 14.1133C74.8059 13.93 74.6068 13.7734 74.3879 13.6488C74.1613 13.5192 73.9241 13.4091 73.6788 13.3196C73.4988 13.2633 73.3215 13.2042 73.1471 13.1423C72.9726 13.0804 72.7982 13.0241 72.6237 12.9735C72.4489 12.9229 72.2801 12.8694 72.1172 12.8131C71.9642 12.7611 71.8148 12.699 71.6699 12.6271C71.5312 12.5534 71.3985 12.4687 71.2731 12.3739C71.1574 12.2867 71.0598 12.1777 70.9861 12.0529C70.9117 11.9248 70.8737 11.7789 70.8762 11.6308C70.8718 11.4681 70.9128 11.3074 70.9949 11.1668C71.083 11.0286 71.205 10.9153 71.3494 10.8376C71.526 10.7406 71.7169 10.6721 71.9149 10.6348C72.1625 10.5874 72.4141 10.5649 72.6662 10.5675C72.7897 10.5675 72.9251 10.5734 73.0711 10.5844C73.2171 10.5954 73.3778 10.6154 73.5525 10.6435C73.7272 10.6716 73.9008 10.7082 74.0758 10.753C74.2508 10.7977 74.4276 10.8489 74.6076 10.9049C74.7744 10.9564 74.9377 11.0185 75.0967 11.0906L75.2154 9.72341C75.0014 9.63338 74.7903 9.55452 74.5823 9.4868C74.3743 9.41962 74.163 9.36325 73.9492 9.31795C73.7404 9.27369 73.5289 9.24269 73.3161 9.22511C73.1074 9.20823 72.9026 9.1998 72.6997 9.1998C72.2334 9.19508 71.7683 9.24895 71.3154 9.36016C70.9282 9.45435 70.5599 9.61424 70.2267 9.83288C69.9244 10.0326 69.6775 10.3055 69.509 10.6263C69.3328 10.9798 69.2458 11.371 69.2558 11.7659C69.2506 12.0502 69.2964 12.3332 69.3908 12.6015C69.4712 12.8265 69.5913 13.0352 69.7453 13.2177C69.8955 13.3899 70.0688 13.5405 70.2603 13.6651C70.4596 13.796 70.6717 13.9062 70.8933 13.9943C71.0168 14.0393 71.1462 14.0842 71.2819 14.1291C71.4169 14.1744 71.5489 14.2166 71.6786 14.2557C71.8083 14.2948 71.9341 14.3348 72.0584 14.3739C72.1828 14.413 72.303 14.4529 72.4211 14.492C72.5393 14.5311 72.6547 14.5683 72.7672 14.602C72.9183 14.6554 73.0652 14.7203 73.2064 14.7959C73.3303 14.8617 73.4463 14.941 73.5525 15.0325C73.6458 15.1143 73.7206 15.2151 73.772 15.328C73.8233 15.4449 73.8491 15.5714 73.8477 15.6991C73.8537 15.824 73.8319 15.9486 73.7837 16.064C73.7355 16.1793 73.6622 16.2825 73.5691 16.366C73.3602 16.5407 73.1105 16.6598 72.8432 16.7123C72.5301 16.7813 72.2103 16.8152 71.8897 16.8133C71.6891 16.812 71.4888 16.7981 71.29 16.7714C71.0708 16.7433 70.8401 16.7039 70.5982 16.6532C70.3562 16.6026 70.1085 16.5407 69.8553 16.4675C69.6019 16.3944 69.3458 16.3128 69.0872 16.2227L69.1544 17.6577C69.4469 17.7592 69.7142 17.8408 69.9564 17.9025C70.1985 17.9642 70.4293 18.0178 70.6488 18.0632C70.8602 18.107 71.0745 18.1352 71.29 18.1476C71.4982 18.1592 71.7093 18.1649 71.9231 18.1647C72.3941 18.1672 72.8639 18.119 73.3246 18.0209C73.7301 17.9387 74.1184 17.7874 74.4726 17.5736C74.7918 17.3787 75.0561 17.1057 75.2407 16.7804C75.4339 16.4231 75.5297 16.0213 75.5187 15.6153C75.5259 15.3191 75.4773 15.0243 75.3755 14.7461C75.2847 14.5119 75.15 14.2971 74.9787 14.1133Z" fill="#EFB4ED"/>
<path d="M82.8962 14.1133C82.7233 13.9301 82.5242 13.7735 82.3053 13.6488C82.0786 13.5192 81.8413 13.409 81.596 13.3196C81.4159 13.2633 81.2387 13.2042 81.0642 13.1423C80.8898 13.0804 80.7153 13.0242 80.5408 12.9735C80.3664 12.9229 80.1976 12.8694 80.0344 12.8131C79.8813 12.761 79.7319 12.6989 79.587 12.6272C79.4483 12.5534 79.3156 12.4687 79.1903 12.3739C79.0745 12.2868 78.9772 12.1777 78.9036 12.0529C78.829 11.9249 78.7909 11.7789 78.7936 11.6308C78.7891 11.4682 78.8301 11.3075 78.912 11.1668C78.9999 11.0285 79.122 10.9151 79.2665 10.8376C79.4431 10.7406 79.634 10.6721 79.8321 10.6348C80.0795 10.5874 80.3311 10.5649 80.5831 10.5675C80.7069 10.5675 80.8419 10.5734 80.9885 10.5844C81.1351 10.5954 81.2949 10.6154 81.4696 10.6435C81.6444 10.6716 81.8183 10.7082 81.9927 10.753C82.1672 10.7977 82.3444 10.8489 82.5248 10.9049C82.6916 10.9564 82.855 11.0185 83.0141 11.0906L83.1325 9.72342C82.9185 9.63338 82.7074 9.55452 82.4994 9.48681C82.2915 9.41958 82.0802 9.3632 81.8663 9.31796C81.6575 9.27369 81.446 9.24269 81.2333 9.22512C81.0247 9.20824 80.8193 9.1998 80.6171 9.1998C80.1507 9.19504 79.6857 9.2489 79.2328 9.36017C78.8454 9.45426 78.4771 9.61416 78.1439 9.83288C77.8416 10.0326 77.5948 10.3056 77.4264 10.6263C77.2499 10.9797 77.1629 11.371 77.1731 11.7659C77.168 12.0503 77.2138 12.3333 77.3085 12.6015C77.3885 12.8266 77.5086 13.0354 77.663 13.2177C77.813 13.39 77.9864 13.5406 78.1779 13.6651C78.3773 13.796 78.5894 13.9062 78.811 13.9943C78.9344 14.0393 79.0638 14.0842 79.1993 14.1291C79.3343 14.1744 79.4663 14.2166 79.596 14.2557C79.7257 14.2948 79.8518 14.3348 79.9756 14.3739C80.0994 14.413 80.2204 14.4529 80.3385 14.492C80.4567 14.5311 80.5721 14.5683 80.6849 14.6021C80.8358 14.6555 80.9825 14.7203 81.1236 14.7959C81.2476 14.8615 81.3637 14.9409 81.4699 15.0326C81.5632 15.1142 81.638 15.215 81.6891 15.328C81.7409 15.4448 81.7669 15.5714 81.7654 15.6991C81.7714 15.824 81.7495 15.9487 81.7013 16.064C81.653 16.1794 81.5797 16.2825 81.4865 16.366C81.2776 16.5407 81.0279 16.6599 80.7606 16.7123C80.4475 16.7813 80.1277 16.8152 79.8071 16.8133C79.6066 16.812 79.4064 16.7981 79.2077 16.7714C78.9882 16.7433 78.7575 16.7039 78.5155 16.6532C78.2736 16.6026 78.0259 16.5407 77.7725 16.4675C77.5195 16.3944 77.2635 16.3128 77.0046 16.2227L77.0722 17.6577C77.3644 17.7592 77.6317 17.8408 77.874 17.9025C78.1164 17.9642 78.3471 18.0178 78.5662 18.0632C78.7777 18.107 78.9921 18.1352 79.2077 18.1476C79.4157 18.1592 79.6268 18.1649 79.8408 18.1647C80.3116 18.1672 80.7812 18.119 81.2417 18.021C81.6472 17.9388 82.0356 17.7875 82.3897 17.5736C82.7091 17.3787 82.9735 17.1058 83.1581 16.7804C83.3514 16.4231 83.4474 16.0213 83.4364 15.6153C83.4435 15.3191 83.3948 15.0243 83.2929 14.7461C83.2022 14.5118 83.0676 14.297 82.8962 14.1133Z" fill="#EFB4ED"/>
<path d="M86.9563 5.68069C86.7812 5.57363 86.5794 5.51806 86.3741 5.52032C86.1662 5.51874 85.9619 5.57419 85.7833 5.68069C85.6073 5.78372 85.4595 5.92871 85.3531 6.10274C85.2458 6.27778 85.1901 6.47961 85.1924 6.68491C85.1908 6.89288 85.2463 7.09728 85.3531 7.27578C85.4563 7.45232 85.6048 7.59804 85.7833 7.69783C85.9637 7.79906 86.1673 7.85145 86.3741 7.84978C86.5783 7.85209 86.7793 7.79961 86.9563 7.69783C87.1299 7.59722 87.273 7.45135 87.3702 7.27578C87.4714 7.09541 87.5238 6.89174 87.5221 6.68491C87.5245 6.48077 87.472 6.2797 87.3702 6.10274C87.2698 5.92957 87.1275 5.78443 86.9563 5.68069Z" fill="#EFB4ED"/>
<path d="M85.4791 17.9959H87.2011V9.21727L85.4791 9.47051V17.9959Z" fill="#EFB4ED"/>
<path d="M95.1694 14.1133C94.9966 13.93 94.7975 13.7734 94.5786 13.6488C94.3519 13.5192 94.1146 13.409 93.8692 13.3196C93.6894 13.2633 93.5121 13.2042 93.3377 13.1423C93.1632 13.0804 92.9887 13.0242 92.8141 12.9735C92.6397 12.9229 92.4708 12.8694 92.3076 12.8131C92.1547 12.7611 92.0053 12.699 91.8605 12.6272C91.7217 12.5534 91.5889 12.4688 91.4635 12.3739C91.3478 12.2867 91.2504 12.1777 91.1768 12.0529C91.1022 11.9249 91.0642 11.7789 91.0668 11.6308C91.0624 11.4682 91.1033 11.3075 91.1853 11.1668C91.2732 11.0285 91.3953 10.9151 91.5398 10.8376C91.7164 10.7406 91.9073 10.6721 92.1053 10.6348C92.3529 10.5874 92.6045 10.5649 92.8566 10.5675C92.9801 10.5675 93.1154 10.5734 93.2617 10.5844C93.408 10.5954 93.5682 10.6154 93.7429 10.6435C93.9176 10.6716 94.0915 10.7082 94.2659 10.753C94.4404 10.7977 94.6177 10.8489 94.798 10.9049C94.9649 10.9564 95.1283 11.0185 95.2873 11.0906L95.4058 9.72342C95.1917 9.63338 94.9807 9.55452 94.7727 9.48681C94.5648 9.41956 94.3534 9.36318 94.1396 9.31796C93.9308 9.27369 93.7193 9.24269 93.5065 9.22512C93.2981 9.20824 93.0928 9.19981 92.8904 9.19981C92.424 9.19503 91.9589 9.2489 91.506 9.36017C91.1186 9.45425 90.7504 9.61415 90.4171 9.83288C90.1149 10.0326 89.868 10.3056 89.6996 10.6263C89.5232 10.9797 89.4362 11.371 89.4464 11.7659C89.4413 12.0503 89.4871 12.3333 89.5818 12.6015C89.6618 12.8266 89.7819 13.0354 89.9363 13.2177C90.0864 13.39 90.2597 13.5405 90.4512 13.6651C90.6506 13.796 90.8627 13.9062 91.0843 13.9943C91.2077 14.0393 91.3371 14.0842 91.4725 14.1291C91.608 14.1739 91.7402 14.2161 91.8692 14.2557C91.9983 14.2955 92.1249 14.3349 92.2488 14.3739C92.3728 14.4129 92.4938 14.4523 92.6118 14.492C92.73 14.5316 92.8454 14.5683 92.9582 14.6021C93.1092 14.6555 93.2559 14.7203 93.3971 14.7959C93.521 14.8616 93.6371 14.941 93.7432 15.0326C93.8366 15.1142 93.9113 15.215 93.9624 15.328C94.0141 15.4448 94.0401 15.5714 94.0386 15.6991C94.0447 15.824 94.0227 15.9486 93.9745 16.064C93.9264 16.1793 93.8531 16.2825 93.76 16.366C93.5509 16.5407 93.3012 16.6598 93.0339 16.7123C92.7208 16.7813 92.4009 16.8152 92.0803 16.8133C91.8798 16.812 91.6797 16.7981 91.481 16.7714C91.2615 16.7433 91.0308 16.7039 90.7888 16.6532C90.5469 16.6026 90.2991 16.5407 90.0457 16.4675C89.7929 16.3944 89.5369 16.3128 89.2779 16.2227L89.3454 17.6577C89.6378 17.7592 89.9051 17.8408 90.1473 17.9025C90.3895 17.9642 90.6202 18.0178 90.8395 18.0632C91.0509 18.107 91.2654 18.1352 91.481 18.1476C91.689 18.1592 91.9 18.1649 92.1141 18.1647C92.5848 18.1672 93.0545 18.119 93.515 18.021C93.9206 17.9387 94.309 17.7874 94.6633 17.5736C94.9825 17.3786 95.2468 17.1057 95.4314 16.7804C95.6246 16.4231 95.7206 16.0213 95.7097 15.6153C95.7167 15.3191 95.668 15.0243 95.5662 14.7461C95.4755 14.5118 95.3408 14.297 95.1694 14.1133Z" fill="#EFB4ED"/>
<path d="M102.953 17.9959H105.182L101.087 13.3815L105.098 9.38609H102.987L100.098 12.5599H99.4758V5.25L97.7538 5.5032V17.9959H99.4758V13.8598H99.5039L102.953 17.9959Z" fill="#EFB4ED"/>
</svg>

<svg xmlns="http://www.w3.org/2000/svg" viewBox="0 0 111 24"><path fill="#6B046A" d="M0 0h111v24H0z"/><path fill="#fff" d="M6.004 18V6.001h3.937V18H6.004Zm9.294-10.09L17.562 18h-4.309L10.55 6.001h2.416a2.276 2.276 0 0 1 1.513.55c.42.345.71.826.82 1.36ZM18.154 18V6.001h3.937V18h-3.937Zm6.91-7.436a2.383 2.383 0 0 1-2.4-2.4 2.303 2.303 0 0 1 .323-1.2 2.411 2.411 0 0 1 3.278-.861c.355.209.652.506.861.861.215.363.326.778.322 1.2a2.4 2.4 0 0 1-1.183 2.079 2.302 2.302 0 0 1-1.2.321ZM28.057 18V6.001h3.937V18h-3.937Zm8.922-5.442c.011.012.096.15.253.414.158.265.364.603.617 1.014a315.936 315.936 0 0 1 1.597 2.62c.247.411.529.876.845 1.394h-4.326c-.27-.44-.516-.837-.735-1.191-.22-.355-.453-.738-.7-1.15-.249-.41-.494-.81-.737-1.2-.242-.389-.45-.73-.625-1.022-.175-.293-.296-.49-.363-.591a1.748 1.748 0 0 1-.287-.845c.017-.29.11-.57.27-.812.068-.113.192-.313.372-.6s.391-.628.633-1.022c.243-.395.488-.797.736-1.209l.7-1.157.736-1.2h4.326l-3.346 5.458a1.08 1.08 0 0 0-.17.542c.012.201.082.395.203.557h.001Z"/><path fill="#EFB4ED" d="M53.96 6.01h-2.11l-4.586 5.284h-.63V6.01h-1.773v11.986h1.773v-5.419h.06l4.988 5.436 2.414-.017-5.723-5.942 5.588-6.044ZM58.105 16.755a1.5 1.5 0 0 1-.177.009.906.906 0 0 1-.371-.068.604.604 0 0 1-.253-.211.917.917 0 0 1-.144-.363 2.805 2.805 0 0 1-.042-.523V5.25l-1.722.253V16.36c-.007.284.039.567.135.835.081.218.215.412.389.566.173.148.378.255.599.312.245.064.498.095.751.093a4.163 4.163 0 0 0 .751-.067 3.37 3.37 0 0 0 .296-.068l.169-1.334a17.455 17.455 0 0 1-.38.06ZM67.517 16.933a.768.768 0 0 1-.658-.27 1.45 1.45 0 0 1-.186-.895l.034-3.478a4.064 4.064 0 0 0-.135-1.08c-.082-.31-.22-.601-.405-.861a2.284 2.284 0 0 0-.701-.625 3.568 3.568 0 0 0-1.021-.388A6.005 6.005 0 0 0 63.11 9.2c-.356 0-.71.022-1.063.067a7.33 7.33 0 0 0-.988.194c-.301.082-.597.18-.887.296l-.202 1.435a9.677 9.677 0 0 1 1.536-.422c.232-.045.466-.076.7-.093.231-.017.46-.026.685-.026a3.77 3.77 0 0 1 1.02.119c.244.06.468.183.65.354.164.167.28.373.338.6.072.278.107.565.102.852l-.002.424-1.973.133a5.241 5.241 0 0 0-1.959.44 2.806 2.806 0 0 0-1.156.936 2.18 2.18 0 0 0-.38 1.24c-.003.416.098.825.295 1.19.207.377.518.684.895.887.46.24.975.356 1.494.338.486.011.97-.069 1.427-.237a3.29 3.29 0 0 0 1.063-.675c.117-.112.228-.23.332-.354.033.175.095.343.183.498.15.258.382.46.659.574.305.122.633.183.962.177.101 0 .2-.003.295-.009.094-.005.188-.02.279-.042.09-.023.171-.042.245-.059.066-.015.13-.035.194-.059l.185-1.131c-.093.032-.189.055-.287.068-.078.01-.157.016-.236.017Zm-2.81-.76a3.249 3.249 0 0 1-.592.371c-.208.102-.43.176-.658.22a3.736 3.736 0 0 1-.717.067 1.906 1.906 0 0 1-.802-.152c-.206-.09-.38-.24-.498-.43a1.262 1.262 0 0 1-.17-.667c-.016-.282.062-.56.22-.793a1.29 1.29 0 0 1 .71-.422 5.132 5.132 0 0 1 1.316-.136h1.478l-.007 1.676c-.086.097-.18.186-.28.266ZM74.979 14.113a2.536 2.536 0 0 0-.591-.464 4.613 4.613 0 0 0-.71-.33c-.18-.056-.356-.115-.53-.177a9.376 9.376 0 0 0-.524-.168c-.175-.051-.344-.105-.507-.16a3.645 3.645 0 0 1-.447-.187 2.966 2.966 0 0 1-.397-.253 1.107 1.107 0 0 1-.287-.321.813.813 0 0 1-.11-.422.873.873 0 0 1 .119-.464.96.96 0 0 1 .354-.33c.177-.096.368-.165.566-.202.247-.048.5-.07.751-.067a5.438 5.438 0 0 1 .886.075c.175.029.349.065.524.11.175.045.352.096.532.152.166.051.33.114.489.186l.118-1.368a8.102 8.102 0 0 0-.633-.236 6.327 6.327 0 0 0-.633-.17 5.064 5.064 0 0 0-.633-.092A7.632 7.632 0 0 0 72.7 9.2a5.569 5.569 0 0 0-1.385.16 3.487 3.487 0 0 0-1.088.473c-.303.2-.55.473-.718.793a2.417 2.417 0 0 0-.253 1.14c-.005.284.04.567.135.835.08.225.2.434.354.617.15.172.324.322.515.447.2.131.412.241.633.33a13.774 13.774 0 0 0 .786.26l.38.119c.124.039.244.079.362.118.118.04.234.076.346.11.151.053.298.118.44.194.123.066.24.145.346.237a.875.875 0 0 1 .219.295.899.899 0 0 1 .076.371.842.842 0 0 1-.279.667 1.617 1.617 0 0 1-.726.346 4.312 4.312 0 0 1-.953.101c-.2-.001-.401-.015-.6-.042a8.894 8.894 0 0 1-.692-.118c-.242-.05-.49-.112-.743-.185a14.82 14.82 0 0 1-.768-.245l.067 1.435a10 10 0 0 0 .802.244c.242.062.473.116.693.161.211.044.425.072.641.085.208.011.42.017.633.017.471.002.94-.046 1.402-.144a3.609 3.609 0 0 0 1.148-.447c.319-.195.583-.468.768-.794.193-.357.289-.759.278-1.165a2.362 2.362 0 0 0-.144-.869 1.976 1.976 0 0 0-.396-.633ZM82.896 14.113a2.544 2.544 0 0 0-.59-.464 4.61 4.61 0 0 0-.71-.33c-.18-.056-.357-.115-.532-.177a9.432 9.432 0 0 0-.523-.168c-.175-.051-.343-.105-.507-.16a3.687 3.687 0 0 1-.447-.187 2.969 2.969 0 0 1-.397-.253 1.102 1.102 0 0 1-.286-.321.809.809 0 0 1-.11-.422.874.874 0 0 1 .118-.464.955.955 0 0 1 .354-.33c.177-.096.368-.165.566-.202.248-.048.5-.07.751-.067a5.457 5.457 0 0 1 .887.075c.174.029.348.065.523.11.174.045.351.096.532.152.167.051.33.114.49.186l.117-1.368a8.094 8.094 0 0 0-.633-.236 6.283 6.283 0 0 0-.633-.169 5.061 5.061 0 0 0-.633-.093 7.639 7.639 0 0 0-.616-.025 5.564 5.564 0 0 0-1.384.16 3.482 3.482 0 0 0-1.09.473c-.301.2-.548.473-.717.793a2.411 2.411 0 0 0-.253 1.14c-.005.284.04.567.135.835.08.226.2.434.355.617.15.172.323.323.515.447.2.131.411.241.633.33a13.856 13.856 0 0 0 .785.26l.38.119c.123.039.244.079.362.118.119.04.234.076.347.11.15.053.297.118.439.194.124.066.24.145.346.237a.867.867 0 0 1 .295.666.842.842 0 0 1-.278.667 1.616 1.616 0 0 1-.726.346 4.312 4.312 0 0 1-.954.101 4.73 4.73 0 0 1-.6-.042 8.886 8.886 0 0 1-.691-.118c-.242-.05-.49-.112-.744-.185a15.033 15.033 0 0 1-.767-.245l.067 1.435c.292.101.56.183.802.244.242.062.473.116.692.161.212.044.426.072.642.085.208.011.419.017.633.017.47.002.94-.046 1.4-.144a3.606 3.606 0 0 0 1.149-.447c.32-.195.584-.468.768-.794.193-.357.29-.759.278-1.165a2.362 2.362 0 0 0-.143-.869 1.97 1.97 0 0 0-.397-.633ZM86.956 5.68a1.093 1.093 0 0 0-.582-.16 1.137 1.137 0 0 0-.59.16 1.236 1.236 0 0 0-.43.423 1.09 1.09 0 0 0-.162.582c-.001.208.054.412.161.59.103.177.252.323.43.423.18.101.384.153.591.152.204.002.405-.05.582-.152.174-.1.317-.247.414-.422.101-.18.154-.384.152-.591a1.14 1.14 0 0 0-.152-.582 1.193 1.193 0 0 0-.414-.422ZM85.48 17.996H87.2V9.217l-1.722.254v8.525ZM95.17 14.113a2.536 2.536 0 0 0-.591-.464 4.607 4.607 0 0 0-.71-.33c-.18-.056-.357-.115-.531-.177a9.439 9.439 0 0 0-.524-.168c-.174-.051-.343-.105-.506-.16a3.657 3.657 0 0 1-.448-.187 2.962 2.962 0 0 1-.397-.253 1.104 1.104 0 0 1-.286-.321.81.81 0 0 1-.11-.422.874.874 0 0 1 .118-.464.955.955 0 0 1 .355-.33c.176-.096.367-.165.565-.202.248-.048.5-.07.752-.067a5.45 5.45 0 0 1 .886.075c.175.029.349.065.523.11.174.045.352.096.532.152.167.051.33.114.49.186l.118-1.368a8.109 8.109 0 0 0-.633-.236 6.28 6.28 0 0 0-.633-.169 5.06 5.06 0 0 0-.633-.093 7.629 7.629 0 0 0-.617-.025 5.563 5.563 0 0 0-1.384.16 3.482 3.482 0 0 0-1.089.473c-.302.2-.549.473-.717.793a2.412 2.412 0 0 0-.254 1.14c-.005.284.041.567.136.835.08.226.2.434.354.617.15.172.324.322.515.447.2.131.412.241.633.33a13.96 13.96 0 0 0 .785.26l.38.119c.124.039.245.078.363.118.118.04.233.076.346.11.151.053.298.118.44.194.123.066.24.145.345.237a.866.866 0 0 1 .296.666.84.84 0 0 1-.279.667 1.62 1.62 0 0 1-.726.346 4.313 4.313 0 0 1-.954.101 4.73 4.73 0 0 1-.599-.042 8.886 8.886 0 0 1-.692-.118 10.22 10.22 0 0 1-.743-.185 15.126 15.126 0 0 1-.768-.245l.067 1.435c.293.101.56.183.802.244.242.062.473.116.692.161.212.044.426.072.642.085.208.011.419.017.633.017.47.002.94-.046 1.401-.144a3.613 3.613 0 0 0 1.148-.447c.32-.195.584-.468.768-.794.194-.357.29-.759.279-1.165a2.367 2.367 0 0 0-.144-.869 1.97 1.97 0 0 0-.397-.633ZM102.953 17.996h2.229l-4.095-4.614 4.011-3.996h-2.111l-2.889 3.174h-.622V5.25l-1.722.253v12.493h1.722V13.86h.028l3.449 4.136Z"/></svg>
